!!!OTL: Ami
!!!ONR: No. 5
!! From Jaap Kunst "Music in New Guinea; Three Studies"
!! Verhandelingen van het Koninkluijk Instituut voor Taal-,
!! Land- end Volkenkunde, Deel 53
!! English translation and correction by Jeune Scott-Kemball
!! Publication Place: 'S-Gravenhage
!! Publisher: Martinus Nijhoff, 1967
!! From Chapter II: Songs of New Guinea, page 89
!!PLACE: Pacifica, New Guinea, Yape\n, Seriu (village)
!!SINGER: Aitai
!!!PSX: M
!!!ENCODER: D. Huron
**kern
*clefF4
*k[]
*M3/8
16A
16A
=1
[4e
24e]
24f
24e
=2
4c
16d
16d
=3
*M2/8
16e
16d
16c
16A
=4
*M3/8
4.c
=5
4A,
16A
16A
=6
16G
16G
16A
16A
[8A
=7
4A;]
16c
16c
=8
4.c
=9
4A
24G
24A
24G
=10
8.A
16G
[8A
=11
4A];
==||
*-
